X:85
T:Jackie Donnans Mazurka (1)
R:Mazurka
S:Nigel and Dianna Bouillier, Bangor (banjo, fiddle).
D:Ulster TV program 'From Glen To Glen'
Q:300
M:3/4
Z:Bernie Stocks
K:D
dB |: A2 AF AB | d2 dB df | e2 ed ef | a2 af ef | A2 AF AB | d2 dB df | 
e2 ed ef |1 d2 dB dB :|2 d2 dA de |: f2 fe de | f2 fe de | e2 ec Ac | 
e2 e2 de | f2 fe de | f2 fe df | a2 fd ef | d2 d2 Ad :: f2 f2 ef | d2 d2 dc | 
B2 BA FA | B2 BA FA | f2 f2 ef | d2 d2 af | e2 ed ef |1 d2 d2 Ad :|2 d2 d2 dB ||
<end>
<start>
